picto/pushchair-left.svg

<svg class="color-immutable" width="24" height="24" viewBox="0 0 24 24" fill="none" xmlns="http://www.w3.org/2000/svg"><path d="M0 22.5V1.5C0 0.675 0.675 0 1.5 0H22.5C23.325 0 24 0.675 24 1.5V22.5C24 23.325 23.325 24 22.5 24H1.5C0.675 24 0 23.325 0 22.5Z" fill="#2D327D"/><path d="M4.45401 18.483C4.45401 19.933 5.63401 21.113 7.08401 21.113C8.53401 21.113 9.71401 19.933 9.71401 18.483C9.71401 17.033 8.53401 15.853 7.08401 15.853C5.63301 15.853 4.45401 17.033 4.45401 18.483ZM5.21301 18.483C5.21301 17.451 6.05201 16.612 7.08301 16.612C8.11401 16.612 8.95301 17.451 8.95301 18.483C8.95301 19.514 8.11401 20.353 7.08301 20.353C6.05201 20.353 5.21301 19.514 5.21301 18.483Z" fill="white"/><path d="M11.208 18.483C11.208 19.933 12.388 21.113 13.838 21.113C15.288 21.113 16.468 19.933 16.468 18.483C16.468 17.033 15.288 15.853 13.838 15.853C12.388 15.853 11.208 17.033 11.208 18.483ZM11.968 18.483C11.968 17.451 12.807 16.612 13.838 16.612C14.869 16.612 15.709 17.451 15.709 18.483C15.709 19.514 14.87 20.353 13.838 20.353C12.807 20.353 11.968 19.514 11.968 18.483Z" fill="white"/><path d="M3.01999 9.483C3.24699 11.613 4.10999 13.553 5.41699 15.108H15.568C16.875 13.553 17.738 11.613 17.965 9.483H3.01999Z" fill="white"/><path d="M9.492 8.73301C9.904 8.73301 10.073 8.44101 9.867 8.08401L6.724 2.64001C4.594 3.87301 3.129 6.12701 3 8.73301H9.492Z" fill="white"/><path d="M20.208 8.43503H15.708V9.03503H20.208C20.373 9.03503 20.508 8.90003 20.508 8.73503C20.508 8.57003 20.373 8.43503 20.208 8.43503Z" fill="white"/></svg>

<svg class="color-immutable" width="24" height="24" viewBox="0 0 24 24" fill="none" xmlns="http://www.w3.org/2000/svg"><g clip-path="url(#a)"><path d="M0 22.5v-21C0 .675.675 0 1.5 0h21c.825 0 1.5.675 1.5 1.5v21c0 .825-.675 1.5-1.5 1.5h-21C.675 24 0 23.325 0 22.5Z" fill="#2D327D"/><path d="M4.454 18.483c0 1.45 1.18 2.63 2.63 2.63s2.63-1.18 2.63-2.63-1.18-2.63-2.63-2.63a2.633 2.633 0 0 0-2.63 2.63Zm.759 0c0-1.032.839-1.871 1.87-1.871 1.031 0 1.87.839 1.87 1.871 0 1.031-.839 1.87-1.87 1.87a1.872 1.872 0 0 1-1.87-1.87ZM11.208 18.483c0 1.45 1.18 2.63 2.63 2.63s2.63-1.18 2.63-2.63-1.18-2.63-2.63-2.63-2.63 1.18-2.63 2.63Zm.76 0c0-1.032.839-1.871 1.87-1.871 1.031 0 1.871.839 1.871 1.871 0 1.031-.839 1.87-1.871 1.87a1.872 1.872 0 0 1-1.87-1.87ZM3.02 9.483a10.45 10.45 0 0 0 2.397 5.625h10.151a10.45 10.45 0 0 0 2.397-5.625H3.02ZM9.492 8.733c.412 0 .581-.292.375-.649L6.724 2.64A7.467 7.467 0 0 0 3 8.733h6.492ZM20.208 8.435h-4.5v.6h4.5a.3.3 0 0 0 .3-.3.3.3 0 0 0-.3-.3Z" fill="#fff"/></g><defs><clipPath id="a"><path fill="#fff" d="M0 0h24v24H0z"/></clipPath></defs></svg>
